X:29
T:BUTTER-MILK MARY'S -- JIG.
R:jig
B:Coles pg. 64.9
Z:John B. Walsh, <walsh:mat:h.ubc.ca> 5/19/02
M:6/8
L:1/8
K:A
(uA/B/)|(cA)F FEC|EAc ecA|def edc|cBB B(ed)|
cea ecA|def edc|edc efg|aec A2:|
|:(uc/d/)|eaa agf|ecA Ace|fbb b2a|gee efg|
aba gag|fgf edc|def edc|BFG A2:|
